assets/symbols/mulberry/window.svg

<svg height="850.394" viewBox="0 0 850.394 850.394" width="850.394" xmlns="http://www.w3.org/2000/svg"><path d="m641.77 734.04v-622.24h-432.54v622.24zm35.65-657.67v694.83h-502.98v-694.83z" fill="#58b947"/><g fill="none"><g stroke="#231f20"><path d="m174.44 76.37h502.98v694.83h-502.98z" stroke-width="35"/><path d="m641.77 416v318.04h-432.54v-622.24h432.54z" stroke-width="21"/><path d="m138.58 777.54h573.84" stroke-width="20.741"/><path d="m425.5 113.75v617.7m-213.5-311.45 213.5-2.01 210.5-1.99" stroke-width="21"/></g><path d="m0 0h850.394v850.394h-850.394z"/></g></svg>

<svg xmlns="http://www.w3.org/2000/svg" width="850.394" height="850.394" viewBox="0 0 850.394 850.394" overflow="visible"><path d="M641.77 734.04V111.8H209.23v622.24h432.54zm35.65-657.67V771.2H174.44V76.37h502.98z" fill="#58b947"/><g fill="none" stroke="#231f20"><path stroke-width="35" d="M174.44 76.37h502.98V771.2H174.44z"/><path stroke-width="21" d="M641.77 416v318.04H209.23V111.8h432.54z"/><path stroke-width="20.741" d="M138.58 777.54h573.84"/><path stroke-width="21" d="M425.5 113.75v617.7M212 420l213.5-2.01L636 416"/></g><path fill="none" d="M0 0h850.394v850.394H0z"/></svg>
